src/Gui/Icons/freecad.svg

<?xml version="1.0" encoding="UTF-8" standalone="no"?>
<!-- Created with Inkscape (http://www.inkscape.org/) -->

<svg
   xmlns:dc="http://purl.org/dc/elements/1.1/"
   xmlns:cc="http://creativecommons.org/ns#"
   xmlns:rdf="http://www.w3.org/1999/02/22-rdf-syntax-ns#"
   xmlns:svg="http://www.w3.org/2000/svg"
   xmlns="http://www.w3.org/2000/svg"
   xmlns:xlink="http://www.w3.org/1999/xlink"
   xmlns:sodipodi="http://sodipodi.sourceforge.net/DTD/sodipodi-0.dtd"
   xmlns:inkscape="http://www.inkscape.org/namespaces/inkscape"
   width="64px"
   height="64px"
   id="svg3140"
   sodipodi:version="0.32"
   inkscape:version="0.91 r13725"
   sodipodi:docname="freecad.svg"
   inkscape:output_extension="org.inkscape.output.svg.inkscape"
   version="1.1">
  <defs
     id="defs3142">
    <linearGradient
       id="linearGradient3864">
      <stop
         id="stop3866"
         offset="0"
         style="stop-color:#71b2f8;stop-opacity:1;" />
      <stop
         id="stop3868"
         offset="1"
         style="stop-color:#002795;stop-opacity:1;" />
    </linearGradient>
    <linearGradient
       id="linearGradient3682">
      <stop
         style="stop-color:#ff6d0f;stop-opacity:1;"
         offset="0"
         id="stop3684" />
      <stop
         style="stop-color:#ff1000;stop-opacity:1;"
         offset="1"
         id="stop3686" />
    </linearGradient>
    <inkscape:perspective
       sodipodi:type="inkscape:persp3d"
       inkscape:vp_x="0 : 32 : 1"
       inkscape:vp_y="0 : 1000 : 0"
       inkscape:vp_z="64 : 32 : 1"
       inkscape:persp3d-origin="32 : 21.333333 : 1"
       id="perspective3148" />
    <linearGradient
       id="linearGradient3864-9">
      <stop
         style="stop-color:#316cab;stop-opacity:1"
         offset="0"
         id="stop3866-1" />
      <stop
         style="stop-color:#002ca8;stop-opacity:1"
         offset="1"
         id="stop3868-1" />
    </linearGradient>
    <radialGradient
       r="19.571428"
       fy="29.149046"
       fx="282.64584"
       cy="29.149046"
       cx="282.64584"
       gradientTransform="matrix(0.6186598,0.9666542,-1.0332462,0.6612786,-327.27568,-255.84136)"
       gradientUnits="userSpaceOnUse"
       id="radialGradient3661-2"
       xlink:href="#linearGradient3864-9"
       inkscape:collect="always" />
    <linearGradient
       id="linearGradient3682-0">
      <stop
         id="stop3684-0"
         offset="0"
         style="stop-color:#ff390f;stop-opacity:1" />
      <stop
         id="stop3686-0"
         offset="1"
         style="stop-color:#ff1000;stop-opacity:1;" />
    </linearGradient>
    <radialGradient
       r="19.571428"
       fy="33.899986"
       fx="270.58316"
       cy="33.899986"
       cx="270.58316"
       gradientTransform="matrix(1.1149219,0.2722306,-0.7507171,3.0745639,-471.08629,-148.32863)"
       gradientUnits="userSpaceOnUse"
       id="radialGradient3817-5"
       xlink:href="#linearGradient3682-0"
       inkscape:collect="always" />
    <inkscape:perspective
       id="perspective3148-5"
       inkscape:persp3d-origin="32 : 21.333333 : 1"
       inkscape:vp_z="64 : 32 : 1"
       inkscape:vp_y="0 : 1000 : 0"
       inkscape:vp_x="0 : 32 : 1"
       sodipodi:type="inkscape:persp3d" />
  </defs>
  <sodipodi:namedview
     id="base"
     pagecolor="#ffffff"
     bordercolor="#666666"
     borderopacity="1.0"
     inkscape:pageopacity="0.0"
     inkscape:pageshadow="2"
     inkscape:zoom="5.5"
     inkscape:cx="32"
     inkscape:cy="32"
     inkscape:current-layer="layer1"
     showgrid="true"
     inkscape:document-units="px"
     inkscape:grid-bbox="true"
     inkscape:window-width="1920"
     inkscape:window-height="1053"
     inkscape:window-x="0"
     inkscape:window-y="0"
     inkscape:window-maximized="1" />
  <metadata
     id="metadata3145">
    <rdf:RDF>
      <cc:Work
         rdf:about="">
        <dc:format>image/svg+xml</dc:format>
        <dc:type
           rdf:resource="http://purl.org/dc/dcmitype/StillImage" />
      </cc:Work>
    </rdf:RDF>
  </metadata>
  <g
     id="layer1"
     inkscape:label="Layer 1"
     inkscape:groupmode="layer">
    <g
       inkscape:label="Layer 1"
       id="layer1-4"
       transform="translate(-6e-6,-0.36363683)">
      <g
         transform="matrix(0.8506406,0,0,0.8506406,187.82699,-0.1960013)"
         id="g3813-3">
        <path
           style="display:inline;overflow:visible;visibility:visible;opacity:1;fill:url(#radialGradient3817-5);fill-opacity:1;fill-rule:evenodd;stroke:#370700;stroke-width:0;stroke-linecap:butt;stroke-linejoin:miter;stroke-miterlimit:4;stroke-dasharray:none;stroke-dashoffset:0;stroke-opacity:1;marker:none;marker-start:none;marker-mid:none;marker-end:none;enable-background:accumulate"
           d="m -216.13659,7.270763 0,55.5 12.375,0 0,-21.71875 8.75,0 0,-8.5625 -8.75,0 0,-9.241879 21.55514,0 0,-15.945621 -33.93014,-0.03125 z"
           id="rect3663-8"
           sodipodi:nodetypes="ccccccccccc"
           inkscape:connector-curvature="0" />
        <path
           style="display:inline;overflow:visible;visibility:visible;opacity:1;fill:url(#radialGradient3661-2);fill-opacity:1;fill-rule:evenodd;stroke:#000137;stroke-width:0;stroke-linecap:butt;stroke-linejoin:miter;stroke-miterlimit:4;stroke-dasharray:none;stroke-dashoffset:0;stroke-opacity:1;marker:none;marker-start:none;marker-mid:none;marker-end:none;enable-background:accumulate"
           d="m -161.05088,23.811562 -7.19826,4.129889 -3.17869,-1.103092 -3.03274,-7.750723 -4.77066,0.250699 -2.17602,8.014733 -3.04547,1.45841 -7.59591,-3.322815 -3.20831,3.565187 4.1299,7.198257 -1.12858,3.169376 -7.75073,3.032741 0.27618,4.779962 8.01474,2.176021 1.45841,3.045461 -3.34829,7.586615 3.56518,3.208306 7.19825,-4.129891 3.19487,1.137883 3.00726,7.741419 4.80544,-0.266883 2.15054,-8.024034 3.04547,-1.458412 7.61208,3.357607 3.20831,-3.565187 -4.12989,-7.198256 1.11239,-3.204168 7.74142,-3.00726 -0.24138,-4.796137 -8.02404,-2.150536 -1.45842,-3.045461 3.33212,-7.621406 -3.56517,-3.208305 z m -10.7808,11.804259 1.47765,0.857357 1.28022,1.160735 1.02494,1.385223 0.73729,1.540127 0.43349,1.660242 0.0718,1.701463 -0.24575,1.701021 -0.56084,1.61483 -0.89215,1.493834 -1.12594,1.264037 -1.38523,1.024933 -1.54013,0.737291 -1.66023,0.433483 -1.71077,0.09731 -1.70103,-0.245733 -1.61482,-0.560852 -1.49383,-0.892149 -1.25475,-1.151431 -1.03422,-1.359735 -0.73731,-1.540126 -0.42417,-1.685727 -0.0973,-1.710769 0.24573,-1.701025 0.56086,-1.614826 0.88284,-1.468351 1.13526,-1.28952 1.38522,-1.024934 1.54012,-0.737294 1.68572,-0.424174 1.70147,-0.07182 1.70102,0.245731 1.61483,0.560854 z"
           id="path3659-5"
           inkscape:connector-curvature="0" />
      </g>
    </g>
  </g>
</svg>

<?xml version="1.0" encoding="UTF-8" standalone="no"?>
<!-- Created with Inkscape (http://www.inkscape.org/) -->
<svg
   xmlns:dc="http://purl.org/dc/elements/1.1/"
   xmlns:cc="http://creativecommons.org/ns#"
   xmlns:rdf="http://www.w3.org/1999/02/22-rdf-syntax-ns#"
   xmlns:svg="http://www.w3.org/2000/svg"
   xmlns="http://www.w3.org/2000/svg"
   xmlns:xlink="http://www.w3.org/1999/xlink"
   xmlns:sodipodi="http://sodipodi.sourceforge.net/DTD/sodipodi-0.dtd"
   xmlns:inkscape="http://www.inkscape.org/namespaces/inkscape"
   width="64px"
   height="64px"
   id="svg3140"
   sodipodi:version="0.32"
   inkscape:version="0.46"
   sodipodi:docname="FreeCAD05.svg"
   inkscape:output_extension="org.inkscape.output.svg.inkscape">
  <defs
     id="defs3142">
    <linearGradient
       id="linearGradient3864">
      <stop
         id="stop3866"
         offset="0"
         style="stop-color:#71b2f8;stop-opacity:1;" />
      <stop
         id="stop3868"
         offset="1"
         style="stop-color:#002795;stop-opacity:1;" />
    </linearGradient>
    <radialGradient
       inkscape:collect="always"
       xlink:href="#linearGradient3864"
       id="radialGradient3661"
       gradientUnits="userSpaceOnUse"
       gradientTransform="matrix(0.6186598,0.9666542,-1.0332462,0.6612786,-327.27568,-255.84136)"
       cx="282.64584"
       cy="29.149046"
       fx="282.64584"
       fy="29.149046"
       r="19.571428" />
    <linearGradient
       id="linearGradient3682">
      <stop
         style="stop-color:#ff6d0f;stop-opacity:1;"
         offset="0"
         id="stop3684" />
      <stop
         style="stop-color:#ff1000;stop-opacity:1;"
         offset="1"
         id="stop3686" />
    </linearGradient>
    <radialGradient
       inkscape:collect="always"
       xlink:href="#linearGradient3682"
       id="radialGradient3817"
       gradientUnits="userSpaceOnUse"
       gradientTransform="matrix(1.1149219,0.2722306,-0.7507171,3.0745639,-471.08629,-148.32863)"
       cx="270.58316"
       cy="33.899986"
       fx="270.58316"
       fy="33.899986"
       r="19.571428" />
    <inkscape:perspective
       sodipodi:type="inkscape:persp3d"
       inkscape:vp_x="0 : 32 : 1"
       inkscape:vp_y="0 : 1000 : 0"
       inkscape:vp_z="64 : 32 : 1"
       inkscape:persp3d-origin="32 : 21.333333 : 1"
       id="perspective3148" />
  </defs>
  <sodipodi:namedview
     id="base"
     pagecolor="#ffffff"
     bordercolor="#666666"
     borderopacity="1.0"
     inkscape:pageopacity="0.0"
     inkscape:pageshadow="2"
     inkscape:zoom="5.5"
     inkscape:cx="32"
     inkscape:cy="32"
     inkscape:current-layer="layer1"
     showgrid="true"
     inkscape:document-units="px"
     inkscape:grid-bbox="true"
     inkscape:window-width="640"
     inkscape:window-height="684"
     inkscape:window-x="0"
     inkscape:window-y="93" />
  <metadata
     id="metadata3145">
    <rdf:RDF>
      <cc:Work
         rdf:about="">
        <dc:format>image/svg+xml</dc:format>
        <dc:type
           rdf:resource="http://purl.org/dc/dcmitype/StillImage" />
      </cc:Work>
    </rdf:RDF>
  </metadata>
  <g
     id="layer1"
     inkscape:label="Layer 1"
     inkscape:groupmode="layer">
    <g
       id="g3813"
       transform="matrix(0.8506406,0,0,0.8506406,187.82699,-0.1960013)">
      <path
         sodipodi:nodetypes="ccccccccccc"
         id="rect3663"
         d="M -216.13659,7.270763 L -216.13659,62.770763 L -203.76159,62.770763 L -203.76159,41.052013 L -195.01159,41.052013 L -195.01159,32.489513 L -203.76159,32.489513 L -203.76159,23.247634 L -182.20645,23.247634 L -182.20645,7.302013 L -216.13659,7.270763 z"
         style="opacity:1;fill:url(#radialGradient3817);fill-opacity:1;fill-rule:evenodd;stroke:#370700;stroke-width:1.91000152;stroke-linecap:butt;stroke-linejoin:miter;marker:none;marker-start:none;marker-mid:none;marker-end:none;stroke-miterlimit:4;stroke-dasharray:none;stroke-dashoffset:0;stroke-opacity:1;visibility:visible;display:inline;overflow:visible;enable-background:accumulate" />
      <path
         id="path3659"
         d="M -161.05088,23.811562 L -168.24914,27.941451 L -171.42783,26.838359 L -174.46057,19.087636 L -179.23123,19.338335 L -181.40725,27.353068 L -184.45272,28.811478 L -192.04863,25.488663 L -195.25694,29.05385 L -191.12704,36.252107 L -192.25562,39.421483 L -200.00635,42.454224 L -199.73017,47.234186 L -191.71543,49.410207 L -190.25702,52.455668 L -193.60531,60.042283 L -190.04013,63.250589 L -182.84188,59.120698 L -179.64701,60.258581 L -176.63975,68 L -171.83431,67.733117 L -169.68377,59.709083 L -166.6383,58.250671 L -159.02622,61.608278 L -155.81791,58.043091 L -159.9478,50.844835 L -158.83541,47.640667 L -151.09399,44.633407 L -151.33537,39.83727 L -159.35941,37.686734 L -160.81783,34.641273 L -157.48571,27.019867 L -161.05088,23.811562 z M -171.83168,35.615821 L -170.35403,36.473178 L -169.07381,37.633913 L -168.04887,39.019136 L -167.31158,40.559263 L -166.87809,42.219505 L -166.80627,43.920968 L -167.05202,45.621989 L -167.61286,47.236819 L -168.50501,48.730653 L -169.63095,49.99469 L -171.01618,51.019623 L -172.55631,51.756914 L -174.21654,52.190397 L -175.92731,52.287705 L -177.62834,52.041972 L -179.24316,51.48112 L -180.73699,50.588971 L -181.99174,49.43754 L -183.02596,48.077805 L -183.76327,46.537679 L -184.18744,44.851952 L -184.28475,43.141183 L -184.03902,41.440158 L -183.47816,39.825332 L -182.59532,38.356981 L -181.46006,37.067461 L -180.07484,36.042527 L -178.53472,35.305233 L -176.849,34.881059 L -175.14753,34.809236 L -173.44651,35.054967 L -171.83168,35.615821 z"
         style="opacity:1;fill:url(#radialGradient3661);fill-opacity:1;fill-rule:evenodd;stroke:#000137;stroke-width:1.91000152;stroke-linecap:butt;stroke-linejoin:miter;marker:none;marker-start:none;marker-mid:none;marker-end:none;stroke-miterlimit:4;stroke-dasharray:none;stroke-dashoffset:0;stroke-opacity:1;visibility:visible;display:inline;overflow:visible;enable-background:accumulate" />
    </g>
  </g>
</svg>
